X: 2047
T: Flickorna dansar på tå 
R: Polska
N: upptecknad av [[Personer/John Enninger]]
B: John Enninger
O: efter Johan Jacob Bruun, Särslöv, Skåne
S: efter Johan Jacob Bruun
B: http://www.smus.se/earkiv/fmk/browselarge.php?lang=sw&katalogid=Ske+30&bildnr=00032
B: Jämför [[http://www.lu.se/folklivsarkivet/skaanes-musiksamlingar/notsamlingen/n1-n50|Skånes musiksamlingar N 13. Notbok efter klockaren Simris Löfstedt]] ([[http://130.235.242.182/musik/NS/N13.pdf|pdf]]), sida 19
B: Jämför [[http://www.smus.se/earkiv/fmk/browselarge.php?lang=sw&katalogid=M+6&bildnr=00016|SMUS - katalog M6 bild 16]] nr 72 upptecknad av [[Personer/Johan Lundin]] från [[Platser/Uppland]]
B: Jämför [[http://www.smus.se/earkiv/fmk/browselarge.php?lang=sw&katalogid=MMD+50&bildnr=00022|SMUS - katalog MMd50 bild 22]] nr 53 ur [[Notböcker/Rondahls nothäfte]] från [[Platser/Gotland]]
B: Jämför [[http://www.smus.se/earkiv/fmk/browselarge.php?lang=sw&katalogid=M+184&bildnr=00015|SMUS - katalog M184 bild 15]] nr 42
B: Jämför [[http://www.smus.se/earkiv/fmk/browselarge.php?lang=sw&katalogid=Ma+4&bildnr=00017|SMUS - katalog Ma4 bild 17]] nr 21 ur [[Notböcker/Kumlins notsamling]]
B: jämför [[http://www.smus.se/earkiv/fmk/browselarge.php?lang=sw&katalogid=M+112&bildnr=00037|SMUS - katalog M112 bild 37]] nr 69
B: Jämför [[http://www.smus.se/earkiv/fmk/browselarge.php?lang=sw&katalogid=Vs+8&bildnr=00013|SMUS - katalog Vs8 bild 13]] nr 3 (med trioler istället för sextondelar)
B: Jämför [[http://www.smus.se/earkiv/fmk/browselarge.php?lang=sw&katalogid=MMD+66&bildnr=00061|SMUS - katalog MMD66 bild 61]] nr 3
B: Jämför [[http://www.smus.se/earkiv/fmk/browselarge.php?lang=sw&katalogid=M+168&bildnr=00030|SMUS - katalog M168 bild 30]]
B: Jämför [[http://www.smus.se/earkiv/fmk/browselarge.php?lang=sw&katalogid=Sm+18&bildnr=00055|SMUS - katalog Sm18 bild 55]]
B: Jämför [[http://www.smus.se/earkiv/fmk/browselarge.php?lang=sw&katalogid=M+46&bildnr=00017|SMUS - katalog M46 bild 17]] nr 53 ur [[Notböcker/Nils-Johan Nybergs notbok]]
B: Jämför [[http://www.smus.se/earkiv/fmk/browselarge.php?lang=sw&katalogid=M+76&bildnr=00021|SMUS - katalog M76 bild 21]] nr 58
B: Jämför [[http://www.smus.se/earkiv/fmk/browselarge.php?lang=sw&katalogid=M+80&bildnr=00007|SMUS - katalog M80 bild 7]] nr 10
B: Jämför [[http://www.smus.se/earkiv/fmk/browselarge.php?lang=sw&katalogid=Ma+8&bildnr=00023|SMUS - katalog Ma8 bild 23]] nr 55
B: Jämför [[http://www.smus.se/earkiv/fmk/browselarge.php?lang=sw&katalogid=M+98&bildnr=00003|SMUS - katalog M98 bild 3]] nr 6
B: Jämför [[http://www.smus.se/earkiv/fmk/browselarge.php?lang=sw&katalogid=M+112&bildnr=00037|SMUS - katalog M112 bild 37]] nr 69
B: Jämför [[http://www.smus.se/earkiv/fmk/browselarge.php?lang=sw&katalogid=MMD+60&bildnr=00021|SMUS - katalog MMD60 bild 21]] nr 81
B: Jämför [[http://www.smus.se/earkiv/fmk/browselarge.php?lang=sw&katalogid=MMD+34&bildnr=00029|SMUS - katalog MMD34 bild 29]] nr 81
B: Jämför [[http://www.smus.se/earkiv/fmk/browselarge.php?lang=sw&katalogid=M+131&bildnr=00013|SMUS - katalog M131 bild 13]] nr 49
B: Jämför [[http://www.smus.se/earkiv/fmk/browselarge.php?lang=sw&katalogid=M+154b&bildnr=00062|SMUS - katalog M154b bild 62]] nr 47
B: Jämför [[http://www.samlingarna.sormlandsspel.se/?page_id=374|Alfred Anderssons notbok]] (pdf) nr 263 sid 224
B: Jämför [[Notböcker/75 polskor från Uppland och Södermanland]], nr 4
N: daterad 5/10 1867
Z: Nils L, 2011-07-01
M: 3/4
L: 1/16
K: A
e2fe dcBA a4 | e2fe dcBA f4 | e2fe d2c2 B2A2 | GABG A2E2 C2A,2 |
e2fe dcBA a4 | e2fe dcBA f4 | e2fe d2c2 B2A2 | GABG A4 A4 ::
Acec Acec Acec | c2B2 BABc d2c2 | Acec Acec Acec | 
c2B2 BABc d2c2 | cABc defg a2>f2 | ecdB B4 A4 :|
(:musicend:)

(:music:)
